svgs/solid/gauge-min.svg

<svg xmlns="http://www.w3.org/2000/svg" viewBox="0 0 576 512"><!-- Font Awesome Pro 6.0.0-alpha2 by @fontawesome - https://fontawesome.com License - https://fontawesome.com/license (Commercial License) --><path d="M288 32C129 32 0 161 0 320C0 372.75 14.25 422.25 39 464.75C44.625 474.375 55.375 480 66.5 480H509.5C520.625 480 531.375 474.375 537 464.75C561.75 422.25 576 372.75 576 320C576 161 447 32 288 32ZM288 96C305.625 96 320 110.375 320 128S305.625 160 288 160S256 145.625 256 128S270.375 96 288 96ZM144 160C161.625 160 176 174.375 176 192S161.625 224 144 224S112 209.625 112 192S126.375 160 144 160ZM343.125 416H232.875C229.625 410.5 227.5 404.375 225.999 398L92 375.625C79 373.5 70.125 361.125 72.375 348C74.5 335 86.875 326.125 100 328.375L233.625 350.625C244.875 332.25 265 320 288 320C323.375 320 352 348.625 352 384C352 395.75 348.625 406.5 343.125 416ZM400 192C400 174.375 414.375 160 432 160S464 174.375 464 192S449.625 224 432 224S400 209.625 400 192ZM480 384C462.375 384 448 369.625 448 352S462.375 320 480 320S512 334.375 512 352S497.625 384 480 384Z"/></svg>

<svg xmlns="http://www.w3.org/2000/svg" viewBox="0 0 576 512"><!--! Font Awesome Pro 6.0.0-alpha3 by @fontawesome - https://fontawesome.com License - https://fontawesome.com/license (Commercial License) --><path d="M288 32c-159 0-288 129-288 288c0 52.75 14.25 102.3 39 144.8c5.625 9.625 16.38 15.25 27.5 15.25h443c11.12 0 21.88-5.625 27.5-15.25C561.8 422.3 576 372.8 576 320C576 161 447 32 288 32zM288 96c17.62 0 32 14.38 32 32s-14.38 32-32 32s-32-14.38-32-32S270.4 96 288 96zM144 160c17.62 0 32 14.38 32 32s-14.38 32-32 32s-32-14.38-32-32S126.4 160 144 160zM343.1 416H232.9c-3.25-5.5-5.375-11.63-6.876-17.1L92 375.6c-13-2.125-21.88-14.5-19.62-27.62c2.125-13 14.5-21.88 27.62-19.62l133.6 22.25C244.9 332.3 265 320 288 320c35.38 0 64 28.63 64 64C352 395.8 348.6 406.5 343.1 416zM400 192c0-17.62 14.38-32 32-32s32 14.38 32 32s-14.38 32-32 32S400 209.6 400 192zM480 384c-17.62 0-31.92-14.38-31.92-32s14.38-32 32-32S512 334.4 512 352S497.6 384 480 384z"/></svg>
